images/header/logo-technomart.svg

<svg width="108" height="18" viewBox="0 0 108 18" fill="none" xmlns="http://www.w3.org/2000/svg">
<path fill-rule="evenodd" clip-rule="evenodd" d="M103.458 2.65853V17.4498H101.348V2.65853H97.5971V1.01506H107.209V2.65853H103.458ZM95.3346 11.3572C94.9673 11.819 94.5063 12.1477 93.9514 12.3433C93.3965 12.539 92.7362 12.6368 91.9703 12.6368C91.6108 12.6368 91.2045 12.6133 90.7512 12.5664C90.2979 12.5194 89.9228 12.4646 89.6258 12.402V17.4498H87.5158V1.24984C88.1097 1.07766 88.7076 0.95636 89.3093 0.885926C89.9111 0.815491 90.5636 0.780273 91.267 0.780273C92.2048 0.780273 93.0019 0.8781 93.6583 1.07375C94.3148 1.2694 94.8462 1.59419 95.2526 2.0481C95.659 2.50201 95.9559 3.10462 96.1435 3.85593C96.3311 4.60723 96.4248 5.53853 96.4248 6.64984C96.4248 7.79245 96.335 8.74723 96.1552 9.51419C95.9755 10.2811 95.7019 10.8955 95.3346 11.3572ZM94.139 4.5368C94.0217 3.97332 93.8381 3.52723 93.588 3.19853C93.3379 2.86984 93.0214 2.63897 92.6385 2.50593C92.2556 2.37288 91.7984 2.30636 91.267 2.30636H89.6258V10.9933H91.267C91.7984 10.9933 92.2556 10.9268 92.6385 10.7938C93.0214 10.6607 93.3379 10.4298 93.588 10.1011C93.8381 9.77245 94.0217 9.32636 94.139 8.76288C94.2562 8.1994 94.3148 7.49506 94.3148 6.64984C94.3148 5.80462 94.2562 5.10027 94.139 4.5368ZM82.2407 13.2238H77.5518L76.4968 17.4498H74.3867L78.3724 1.01506H81.4202L85.4058 17.4498H83.2958L82.2407 13.2238ZM79.9431 3.36288H79.8494L77.9035 11.5803H81.8891L79.9431 3.36288ZM69.815 5.24114H69.6978L66.2983 15.3368H64.1883L60.7888 5.24114H60.6716L59.9682 17.4498H57.8582L58.796 1.01506H61.3749L65.1964 12.2846H65.2902L69.1117 1.01506H71.6906L72.6284 17.4498H70.5184L69.815 5.24114ZM54.0601 15.9238C53.6225 16.5655 53.095 17.0194 52.4776 17.2855C51.8602 17.5516 51.153 17.6846 50.3559 17.6846C49.5587 17.6846 48.8515 17.5516 48.2341 17.2855C47.6167 17.0194 47.0892 16.5655 46.6516 15.9238C46.2139 15.282 45.8818 14.4172 45.6552 13.3294C45.4285 12.2416 45.3152 10.8759 45.3152 9.23245C45.3152 7.58897 45.4285 6.22332 45.6552 5.13549C45.8818 4.04766 46.2139 3.18288 46.6516 2.54114C47.0892 1.8994 47.6167 1.44549 48.2341 1.1794C48.8515 0.913317 49.5587 0.780273 50.3559 0.780273C51.153 0.780273 51.8602 0.913317 52.4776 1.1794C53.095 1.44549 53.6225 1.8994 54.0601 2.54114C54.4978 3.18288 54.8299 4.04766 55.0565 5.13549C55.2832 6.22332 55.3965 7.58897 55.3965 9.23245C55.3965 10.8759 55.2832 12.2416 55.0565 13.3294C54.8299 14.4172 54.4978 15.282 54.0601 15.9238ZM53.0403 5.75766C52.8762 4.84984 52.6613 4.12984 52.3955 3.59766C52.1298 3.06549 51.8172 2.69766 51.4578 2.49419C51.0983 2.29071 50.731 2.18897 50.3559 2.18897C49.9807 2.18897 49.6134 2.29071 49.2539 2.49419C48.8945 2.69766 48.5819 3.06549 48.3162 3.59766C48.0504 4.12984 47.8355 4.84984 47.6714 5.75766C47.5073 6.66549 47.4253 7.82375 47.4253 9.23245C47.4253 10.6411 47.5073 11.7994 47.6714 12.7072C47.8355 13.6151 48.0504 14.3351 48.3162 14.8672C48.5819 15.3994 48.8945 15.7672 49.2539 15.9707C49.6134 16.1742 49.9807 16.2759 50.3559 16.2759C50.731 16.2759 51.0983 16.1742 51.4578 15.9707C51.8172 15.7672 52.1298 15.3994 52.3955 14.8672C52.6613 14.3351 52.8762 13.6151 53.0403 12.7072C53.2044 11.7994 53.2864 10.6411 53.2864 9.23245C53.2864 7.82375 53.2044 6.66549 53.0403 5.75766ZM40.3918 9.9368H35.4684V17.4498H33.3584V1.01506H35.4684V8.29332H40.3918V1.01506H42.5019V17.4498H40.3918V9.9368ZM29.2563 17.4498L26.3257 10.4064L23.3951 17.4498H21.2851L24.8018 8.99766L21.6368 1.01506H23.7468L26.3257 7.58897L28.9047 1.01506H31.0147L27.8497 8.99766L31.3664 17.4498H29.2563ZM12.0244 1.01506H19.9957V2.65853H14.1345V8.05853H19.2923V9.70201H14.1345V15.8064H19.9957V17.4498H12.0244V1.01506ZM6.39769 17.4498H4.28766V2.65853H0.536495V1.01506H10.1489V2.65853H6.39769V17.4498Z" fill="white"/>
</svg>

<svg width="108" height="18" fill="none" xmlns="http://www.w3.org/2000/svg"><path fill-rule="evenodd" clip-rule="evenodd" d="M103.458 2.6585v14.7913h-2.11V2.6585h-3.7509V1.0151h9.6119v1.6434h-3.751Zm-8.1234 8.6987c-.3673.4618-.8283.7905-1.3832.9861-.5549.1957-1.2152.2935-1.9811.2935-.3595 0-.7658-.0235-1.2191-.0704-.4533-.047-.8284-.1018-1.1254-.1644v5.0478h-2.11v-16.2A11.0428 11.0428 0 0 1 89.3093.886c.6018-.0704 1.2543-.1056 1.9577-.1056.9378 0 1.7349.0978 2.3913.2934.6565.1957 1.1879.5205 1.5943.9744.4064.454.7033 1.0565.8909 1.8078.1876.7513.2813 1.6826.2813 2.794 0 1.1425-.0898 2.0973-.2696 2.8643-.1797.7669-.4533 1.3813-.8206 1.843ZM94.139 4.5368c-.1173-.5635-.3009-1.0096-.551-1.3383-.2501-.3287-.5666-.5595-.9495-.6926-.3829-.133-.8401-.1995-1.3715-.1995h-1.6412v8.6869h1.6412c.5314 0 .9886-.0665 1.3715-.1995.3829-.1331.6994-.364.9495-.6927s.4337-.7747.551-1.3382c.1172-.5635.1758-1.2678.1758-2.113 0-.8453-.0586-1.5496-.1758-2.1131Zm-11.8983 8.687h-4.6889l-1.055 4.226h-2.1101l3.9857-16.4347h3.0478l3.9856 16.4347h-2.11l-1.0551-4.226Zm-2.2976-9.861h-.0937l-1.9459 8.2175h3.9856l-1.946-8.2174ZM69.815 5.2412h-.1172l-3.3995 10.0957h-2.11L60.7888 5.2411h-.1172l-.7034 12.2087h-2.11l.9378-16.4347h2.5789l3.8215 11.2695h.0938l3.8215-11.2695h2.5789l.9378 16.4347h-2.11L69.815 5.2411ZM54.0601 15.9238c-.4376.6417-.9651 1.0956-1.5825 1.3617-.6174.2661-1.3246.3991-2.1217.3991-.7972 0-1.5044-.133-2.1218-.3991s-1.1449-.72-1.5825-1.3617c-.4377-.6418-.7698-1.5066-.9964-2.5944-.2267-1.0878-.34-2.4535-.34-4.097 0-1.6434.1133-3.009.34-4.097.2266-1.0877.5587-1.9525.9964-2.5943.4376-.6417.9651-1.0956 1.5825-1.3617.6174-.266 1.3246-.3991 2.1218-.3991.7971 0 1.5043.133 2.1217.3991.6174.266 1.1449.72 1.5825 1.3617.4377.6418.7698 1.5066.9964 2.5944.2267 1.0878.34 2.4535.34 4.097 0 1.6434-.1133 3.0091-.34 4.0969-.2266 1.0878-.5587 1.9526-.9964 2.5944ZM53.0403 5.7577c-.1641-.9079-.379-1.6279-.6448-2.16-.2657-.5322-.5783-.9-.9377-1.1035-.3595-.2035-.7268-.3052-1.1019-.3052-.3752 0-.7425.1017-1.102.3052-.3594.2035-.672.5713-.9377 1.1035-.2658.5321-.4807 1.2521-.6448 2.16-.1641.9078-.2461 2.066-.2461 3.4748 0 1.4086.082 2.5669.2461 3.4747.1641.9079.379 1.6279.6448 2.16.2657.5322.5783.9.9377 1.1035.3595.2035.7268.3052 1.102.3052.3751 0 .7424-.1017 1.1019-.3052.3594-.2035.672-.5713.9377-1.1035.2658-.5321.4807-1.2521.6448-2.16.1641-.9078.2461-2.0661.2461-3.4748 0-1.4086-.082-2.567-.2461-3.4747ZM40.3918 9.9368h-4.9234v7.513h-2.11V1.0151h2.11v7.2782h4.9234V1.0151h2.1101v16.4347h-2.1101v-7.513Zm-11.1355 7.513-2.9306-7.0434-2.9306 7.0434h-2.11l3.5167-8.4521-3.165-7.9826h2.11l2.5789 6.5739 2.579-6.574h2.11l-3.165 7.9827 3.5167 8.4521h-2.1101ZM12.0244 1.0151h7.9713v1.6434h-5.8612v5.4h5.1578V9.702h-5.1578v6.1044h5.8612v1.6434h-7.9713V1.0151ZM6.3977 17.4498h-2.11V2.6585H.5365V1.0151h9.6124v1.6434H6.3977v14.7913Z" fill="#fff"/></svg>
